img/illo-3.svg

<svg fill="none" height="301" viewBox="0 0 345 301" width="345" xmlns="http://www.w3.org/2000/svg"><rect fill="#56ccf2" height="300" rx="12" width="345" y=".5"/><path d="m162.194 76.6836h65.1079v82.207h-65.1079z" fill="#fff"/><path d="m168.772 83.2607h65.1079v82.207h-65.1079z" fill="#000"/><g stroke="#fff" stroke-linecap="round" stroke-linejoin="round" stroke-width="1.70639"><path d="m161.534 117.328h-71.6271c-19.2819 0-34.913 15.631-34.913 34.913s15.6311 34.913 34.913 34.913h18.6861"/><path d="m153.308 108.251 9.113 9.113-9.113 9.114"/><path d="m234.711 117.229c19.282 0 34.913 15.631 34.913 34.913s-15.631 34.913-34.913 34.913h-71.628"/><path d="m171.31 196.132-9.113-9.113 9.113-9.113"/></g><path d="m95.3447 135.215h65.1079v82.207h-65.1079z" fill="#fff500" transform="matrix(.96592583 .25881905 -.25881905 .96592583 38.245009 -20.069685)"/><path d="m116.352 160.206v45.912" stroke="#f66" stroke-width=".853196"/><path d="m137.199 183.029h-41.4321" stroke="#f66" stroke-width=".853196"/><path d="m0-.426598h25.7552" stroke="#f66" stroke-width=".853196" transform="matrix(-.707107 -.707106 .707107 -.707106 126.3 191.856)"/><path d="m125.483 173.945-18.212 18.212" stroke="#f66" stroke-width=".853196"/><path d="m200.821 98.3631c.191-.9009 1.477-.9009 1.669 0l2.493 11.7229c.137.642.917.896 1.405.456l8.908-8.018c.685-.616 1.725.14 1.35.981l-4.873 10.949c-.267.6.216 1.264.869 1.196l11.919-1.251c.916-.096 1.313 1.127.516 1.587l-10.378 5.994c-.569.329-.569 1.149 0 1.478l10.378 5.994c.797.46.4 1.683-.516 1.587l-11.919-1.251c-.653-.069-1.136.595-.869 1.195l4.873 10.95c.375.841-.665 1.597-1.35.981l-8.908-8.018c-.488-.44-1.268-.186-1.405.456l-2.493 11.723c-.192.901-1.478.901-1.669 0l-2.494-11.723c-.136-.642-.917-.896-1.405-.456l-8.908 8.018c-.684.616-1.724-.14-1.35-.981l4.873-10.95c.267-.6-.215-1.264-.868-1.195l-11.92 1.251c-.916.096-1.313-1.127-.515-1.587l10.378-5.994c.568-.329.568-1.149 0-1.478l-10.378-5.994c-.798-.46-.401-1.683.515-1.587l11.92 1.251c.653.068 1.135-.596.868-1.196l-4.873-10.949c-.374-.841.666-1.597 1.35-.981l8.908 8.018c.488.44 1.269.186 1.405-.456z" fill="#fff500"/><circle cx="162.195" cy="117.459" fill="#fff500" r="5.26125"/><path d="m224.015 187.169s-8.539 8.549-19.072 8.549-19.072-8.549-19.072-8.549 8.539-8.55 19.072-8.55 19.072 8.55 19.072 8.55z" fill="#fff" stroke="#fff" stroke-linecap="round" stroke-linejoin="round" stroke-width="1.70639"/><circle cx="204.943" cy="187.169" fill="#00ba8d" r="7.23422"/><circle cx="204.943" cy="187.169" fill="#000" r="3.94594"/></svg>

<svg width="345" height="301" viewBox="0 0 345 301" fill="none" xmlns="http://www.w3.org/2000/svg">
<rect y="0.5" width="345" height="300" rx="12" fill="#56CCF2"/>
<rect x="162.194" y="76.6836" width="65.1079" height="82.207" fill="white"/>
<rect x="168.772" y="83.2607" width="65.1079" height="82.207" fill="black"/>
<path d="M161.534 117.328L89.9069 117.328C70.625 117.328 54.9939 132.959 54.9939 152.241C54.9939 171.523 70.625 187.154 89.9069 187.154L108.593 187.154" stroke="white" stroke-width="1.70639" stroke-linecap="round" stroke-linejoin="round"/>
<path d="M153.308 108.251L162.421 117.364L153.308 126.478" stroke="white" stroke-width="1.70639" stroke-linecap="round" stroke-linejoin="round"/>
<path d="M234.711 117.229C253.993 117.229 269.624 132.86 269.624 152.142C269.624 171.424 253.993 187.055 234.711 187.055L163.083 187.055" stroke="white" stroke-width="1.70639" stroke-linecap="round" stroke-linejoin="round"/>
<path d="M171.31 196.132L162.197 187.019L171.31 177.906" stroke="white" stroke-width="1.70639" stroke-linecap="round" stroke-linejoin="round"/>
<rect x="95.3447" y="135.215" width="65.1079" height="82.207" transform="rotate(15 95.3447 135.215)" fill="#FFF500"/>
<line x1="116.352" y1="160.206" x2="116.352" y2="206.118" stroke="#FF6666" stroke-width="0.853196"/>
<line x1="137.199" y1="183.029" x2="95.7669" y2="183.029" stroke="#FF6666" stroke-width="0.853196"/>
<line y1="-0.426598" x2="25.7552" y2="-0.426598" transform="matrix(-0.707107 -0.707106 0.707107 -0.707106 126.3 191.856)" stroke="#FF6666" stroke-width="0.853196"/>
<line x1="125.483" y1="173.945" x2="107.271" y2="192.157" stroke="#FF6666" stroke-width="0.853196"/>
<path d="M200.821 98.3631C201.012 97.4622 202.298 97.4622 202.49 98.3631L204.983 110.086C205.12 110.728 205.9 110.982 206.388 110.542L215.296 102.524C215.981 101.908 217.021 102.664 216.646 103.505L211.773 114.454C211.506 115.054 211.989 115.718 212.642 115.65L224.561 114.399C225.477 114.303 225.874 115.526 225.077 115.986L214.699 121.98C214.13 122.309 214.13 123.129 214.699 123.458L225.077 129.452C225.874 129.912 225.477 131.135 224.561 131.039L212.642 129.788C211.989 129.719 211.506 130.383 211.773 130.983L216.646 141.933C217.021 142.774 215.981 143.53 215.296 142.914L206.388 134.896C205.9 134.456 205.12 134.71 204.983 135.352L202.49 147.075C202.298 147.976 201.012 147.976 200.821 147.075L198.327 135.352C198.191 134.71 197.41 134.456 196.922 134.896L188.014 142.914C187.33 143.53 186.29 142.774 186.664 141.933L191.537 130.983C191.804 130.383 191.322 129.719 190.669 129.788L178.749 131.039C177.833 131.135 177.436 129.912 178.234 129.452L188.612 123.458C189.18 123.129 189.18 122.309 188.612 121.98L178.234 115.986C177.436 115.526 177.833 114.303 178.749 114.399L190.669 115.65C191.322 115.718 191.804 115.054 191.537 114.454L186.664 103.505C186.29 102.664 187.33 101.908 188.014 102.524L196.922 110.542C197.41 110.982 198.191 110.728 198.327 110.086L200.821 98.3631Z" fill="#FFF500"/>
<circle cx="162.195" cy="117.459" r="5.26125" fill="#FFF500"/>
<path d="M224.015 187.169C224.015 187.169 215.476 195.718 204.943 195.718C194.41 195.718 185.871 187.169 185.871 187.169C185.871 187.169 194.41 178.619 204.943 178.619C215.476 178.619 224.015 187.169 224.015 187.169Z" fill="white" stroke="white" stroke-width="1.70639" stroke-linecap="round" stroke-linejoin="round"/>
<circle cx="204.943" cy="187.169" r="7.23422" fill="#00BA8D"/>
<circle cx="204.943" cy="187.169" r="3.94594" fill="black"/>
</svg>
